icons/1_Primary/Leantime.svg

<svg width="1024" height="1024" fill="none" xmlns="http://www.w3.org/2000/svg"><g clip-path="url(#a)"><path d="M512 1024c282.77 0 512-229.23 512-512S794.77 0 512 0 0 229.23 0 512s229.23 512 512 512Z" fill="#728DBE"/><path d="m148.29 554.43 11.39 1.25v2.85H149c-7.12 0-12.4-2.19-15.84-6.58-3.44-4.4-5.16-12.23-5.16-23.5v-105.7h4.27v105.7c0 6.88.62 12.13 1.87 15.75 1.25 3.62 2.99 6.14 5.25 7.56 2.25 1.42 5.22 2.31 8.9 2.67Zm82.02-40.56h-43.42c0 10.68.92 18.98 2.76 24.91 1.84 5.93 5.13 10.23 9.88 12.9 4.74 2.67 11.57 4 20.46 4h32.74v2.85c-9.49.71-20.52 1.07-33.1 1.07-9.61 0-17.08-1.54-22.42-4.63h.01c-5.34-3.08-9.11-8.1-11.3-15.04-2.2-6.94-3.29-16.64-3.29-29.09s1.22-22.12 3.65-29c2.43-6.88 6.37-11.74 11.83-14.59 5.46-2.85 12.93-4.27 22.42-4.27 11.74 0 20.34 2.26 25.8 6.76 5.46 4.51 8.18 12.34 8.18 23.49 0 13.76-8.07 20.64-24.2 20.64Zm-43.41-3.92h43.42c7 0 12.07-1.25 15.21-3.74 3.14-2.49 4.72-6.82 4.72-12.99 0-6.88-.95-12.22-2.85-16.01-1.9-3.8-4.98-6.46-9.25-8.01-4.27-1.54-10.14-2.31-17.62-2.31-9.02 0-15.9 1.25-20.64 3.74s-8.1 6.76-10.05 12.81c-1.96 6.05-2.94 14.89-2.94 26.51Zm162.28-40.85c4.86 4.57 7.29 11.42 7.29 20.55v68.86h-2.85l-1.42-11.39c-.24.12-4.92 2.22-14.06 6.32-9.14 4.09-18.8 6.14-29 6.14-7 0-12.69-2.07-17.08-6.23v.02c-4.39-4.15-6.58-9.9-6.58-17.26v-5.52c0-7.71 2.43-13.82 7.29-18.33 4.86-4.51 11.86-6.76 21-6.76h38.43v-15.84c0-7.59-2.05-13.4-6.14-17.44-4.09-4.03-11.24-6.05-21.44-6.05h-30.25v-2.85l4.98-.18c11.5-.59 20.22-.89 26.16-.89 10.91 0 18.8 2.29 23.67 6.85Zm3.02 39.26-39.5 1.25c-8.07.24-13.91 2.26-17.53 6.05-3.62 3.8-5.43 8.78-5.43 14.95v4.63c0 7 2.02 12.1 6.05 15.3 4.03 3.2 8.72 4.8 14.06 4.8 4.27 0 9.55-.83 15.84-2.49 6.29-1.67 11.92-3.36 16.9-5.08 4.98-1.72 8.18-2.87 9.61-3.47v-35.94Zm103.21-41.74c-4.39-2.78-9.61-4.18-15.66-4.18-6.76 0-13.43 1.16-20.02 3.47-6.59 2.31-12.73 5.36-18.42 9.16l-1.78-11.03h-2.49v94.49h4.27v-80.96c7.48-4.03 13.94-6.91 19.4-8.63 5.46-1.72 11.45-2.58 19.04-2.58s13.64 2.52 18.15 7.56c4.5 5.04 6.76 11.3 6.76 18.77v65.84h4.27v-65.84c0-5.34-1.16-10.32-3.47-14.95-2.31-4.63-5.66-8.33-10.05-11.12Zm73.13-29.99h-14.06l-2.67 26.69-15.48 3.03v11.57h15.12l-.71 48.93c-.24 11.39 1.89 19.52 6.4 24.38h.01c4.51 4.87 11.68 7.3 21.53 7.3h14.41v-13.17l-11.74-1.07c-3.67-.35-6.73-1.78-9.16-4.27-2.43-2.5-3.65-6.95-3.65-13.35v-48.76h25.8v-14.59h-25.8v-26.69Zm68.32-10.48h-13.17c-2.13 0-3.2 1.06-3.2 3.2v14.95c0 .95.29 1.69.89 2.22.59.54 1.36.81 2.31.81h13.17c1.9 0 2.85-1.01 2.85-3.03v-14.95c0-.94-.24-1.71-.71-2.31-.48-.59-1.19-.89-2.14-.89ZM581.2 558.53h17.79v-95.2H581.2v95.2Zm165.13-96.8c-6.05 0-12.49 1.39-19.31 4.18-6.82 2.79-12.61 6.02-17.35 9.7-2.38-4.27-5.64-7.65-9.79-10.14-4.16-2.49-9.08-3.74-14.77-3.74-6.65 0-12.72 1.06-18.24 3.2-5.51 2.14-10.94 5.04-16.28 8.72l-3.56-10.32h-14.22v95.2h17.79v-72.06c4.86-2.84 9.34-4.98 13.43-6.4 4.09-1.43 8.63-2.14 13.61-2.14 5.58 0 9.97 1.69 13.17 5.07 3.2 3.38 4.8 7.92 4.8 13.61v61.92h17.79v-61.74c0-3.08-.47-6.23-1.42-9.43 4.51-2.85 9.23-5.13 14.15-6.85 4.92-1.72 9.64-2.58 14.15-2.58 5.58 0 10 1.69 13.26 5.07 3.26 3.38 4.89 7.92 4.89 13.61v61.92h17.79v-63.52c0-10.2-2.43-18.3-7.29-24.29-4.87-5.99-12.4-8.99-22.6-8.99Zm101.79 1.02c-26.44.01-47.88 21.45-47.88 47.89s21.44 47.88 47.88 47.88v-13.08h-.09c-19.31 0-34.96-15.65-34.96-34.96 0-19.31 15.65-34.96 34.96-34.96 19.31 0 34.96 15.65 34.96 34.96 0 1.63-.15 3.22-.37 4.79 4.47.01 8.87.06 12.9.14.23-1.72.4-3.1.48-4.78 0-26.44-21.44-47.88-47.88-47.88Zm2.3 15.89h-4.79v36.76h26.01v-4.49h-21.22v-32.27Z" fill="#fff"/></g><defs><clipPath id="a"><path fill="#fff" d="M0 0h1024v1024H0z"/></clipPath></defs></svg>

<svg width="1024" height="1024" viewBox="0 0 1024 1024" fill="none" xmlns="http://www.w3.org/2000/svg">
<g clip-path="url(#clip0_2_2658)">
<path d="M512 1024C794.77 1024 1024 794.77 1024 512C1024 229.23 794.77 0 512 0C229.23 0 0 229.23 0 512C0 794.77 229.23 1024 512 1024Z" fill="#728DBE"/>
<path d="M148.29 554.43L159.68 555.68V558.53H149C141.88 558.53 136.6 556.34 133.16 551.95C129.72 547.55 128 539.72 128 528.45V422.75H132.27V528.45C132.27 535.33 132.89 540.58 134.14 544.2C135.39 547.82 137.13 550.34 139.39 551.76C141.64 553.18 144.61 554.07 148.29 554.43ZM230.31 513.87H186.89C186.89 524.55 187.81 532.85 189.65 538.78C191.49 544.71 194.78 549.01 199.53 551.68C204.27 554.35 211.1 555.68 219.99 555.68H252.73V558.53C243.24 559.24 232.21 559.6 219.63 559.6C210.02 559.6 202.55 558.06 197.21 554.97H197.22C191.88 551.89 188.11 546.87 185.92 539.93C183.72 532.99 182.63 523.29 182.63 510.84C182.63 498.39 183.85 488.72 186.28 481.84C188.71 474.96 192.65 470.1 198.11 467.25C203.57 464.4 211.04 462.98 220.53 462.98C232.27 462.98 240.87 465.24 246.33 469.74C251.79 474.25 254.51 482.08 254.51 493.23C254.51 506.99 246.44 513.87 230.31 513.87ZM186.9 509.95H230.32C237.32 509.95 242.39 508.7 245.53 506.21C248.67 503.72 250.25 499.39 250.25 493.22C250.25 486.34 249.3 481 247.4 477.21C245.5 473.41 242.42 470.75 238.15 469.2C233.88 467.66 228.01 466.89 220.53 466.89C211.51 466.89 204.63 468.14 199.89 470.63C195.15 473.12 191.79 477.39 189.84 483.44C187.88 489.49 186.9 498.33 186.9 509.95ZM349.18 469.1C354.04 473.67 356.47 480.52 356.47 489.65V558.51H353.62L352.2 547.12C351.96 547.24 347.28 549.34 338.14 553.44C329 557.53 319.34 559.58 309.14 559.58C302.14 559.58 296.45 557.51 292.06 553.35V553.37C287.67 549.22 285.48 543.47 285.48 536.11V530.59C285.48 522.88 287.91 516.77 292.77 512.26C297.63 507.75 304.63 505.5 313.77 505.5H352.2V489.66C352.2 482.07 350.15 476.26 346.06 472.22C341.97 468.19 334.82 466.17 324.62 466.17H294.37V463.32L299.35 463.14C310.85 462.55 319.57 462.25 325.51 462.25C336.42 462.25 344.31 464.54 349.18 469.1ZM352.2 508.36L312.7 509.61C304.63 509.85 298.79 511.87 295.17 515.66C291.55 519.46 289.74 524.44 289.74 530.61V535.24C289.74 542.24 291.76 547.34 295.79 550.54C299.82 553.74 304.51 555.34 309.85 555.34C314.12 555.34 319.4 554.51 325.69 552.85C331.98 551.18 337.61 549.49 342.59 547.77C347.57 546.05 350.77 544.9 352.2 544.3V508.36ZM455.41 466.62C451.02 463.84 445.8 462.44 439.75 462.44C432.99 462.44 426.32 463.6 419.73 465.91C413.14 468.22 407 471.27 401.31 475.07L399.53 464.04H397.04V558.53H401.31V477.57C408.79 473.54 415.25 470.66 420.71 468.94C426.17 467.22 432.16 466.36 439.75 466.36C447.34 466.36 453.39 468.88 457.9 473.92C462.4 478.96 464.66 485.22 464.66 492.69V558.53H468.93V492.69C468.93 487.35 467.77 482.37 465.46 477.74C463.15 473.11 459.8 469.41 455.41 466.62ZM528.54 436.63H514.48L511.81 463.32L496.33 466.35V477.92H511.45L510.74 526.85C510.5 538.24 512.63 546.37 517.14 551.23H517.15C521.66 556.1 528.83 558.53 538.68 558.53H553.09V545.36L541.35 544.29C537.68 543.94 534.62 542.51 532.19 540.02C529.76 537.52 528.54 533.07 528.54 526.67V477.91H554.34V463.32H528.54V436.63ZM596.86 426.15H583.69C581.56 426.15 580.49 427.21 580.49 429.35V444.3C580.49 445.25 580.78 445.99 581.38 446.52C581.97 447.06 582.74 447.33 583.69 447.33H596.86C598.76 447.33 599.71 446.32 599.71 444.3V429.35C599.71 428.41 599.47 427.64 599 427.04C598.52 426.45 597.81 426.15 596.86 426.15ZM581.2 558.53H598.99V463.33H581.2V558.53ZM746.33 461.73C740.28 461.73 733.84 463.12 727.02 465.91C720.2 468.7 714.41 471.93 709.67 475.61C707.29 471.34 704.03 467.96 699.88 465.47C695.72 462.98 690.8 461.73 685.11 461.73C678.46 461.73 672.39 462.79 666.87 464.93C661.36 467.07 655.93 469.97 650.59 473.65L647.03 463.33H632.81V558.53H650.6V486.47C655.46 483.63 659.94 481.49 664.03 480.07C668.12 478.64 672.66 477.93 677.64 477.93C683.22 477.93 687.61 479.62 690.81 483C694.01 486.38 695.61 490.92 695.61 496.61V558.53H713.4V496.79C713.4 493.71 712.93 490.56 711.98 487.36C716.49 484.51 721.21 482.23 726.13 480.51C731.05 478.79 735.77 477.93 740.28 477.93C745.86 477.93 750.28 479.62 753.54 483C756.8 486.38 758.43 490.92 758.43 496.61V558.53H776.22V495.01C776.22 484.81 773.79 476.71 768.93 470.72C764.06 464.73 756.53 461.73 746.33 461.73ZM848.12 462.75C821.68 462.76 800.24 484.2 800.24 510.64C800.24 537.08 821.68 558.52 848.12 558.52V545.44H848.03C828.72 545.44 813.07 529.79 813.07 510.48C813.07 491.17 828.72 475.52 848.03 475.52C867.34 475.52 882.99 491.17 882.99 510.48C882.99 512.11 882.84 513.7 882.62 515.27C887.09 515.28 891.49 515.33 895.52 515.41C895.75 513.69 895.92 512.31 896 510.63C896 484.19 874.56 462.75 848.12 462.75ZM850.42 478.64H845.63V515.4H871.64V510.91H850.42V478.64Z" fill="white"/>
</g>
<defs>
<clipPath id="clip0_2_2658">
<rect width="1024" height="1024" fill="white"/>
</clipPath>
</defs>
</svg>
